icons/modern/coin.svg

<svg width="32" height="32" viewBox="0 0 32 32" fill="none" xmlns="http://www.w3.org/2000/svg">
<g filter="url(#filter0_i_18_21332)">
<circle cx="16" cy="16.4141" r="10.875" fill="url(#paint0_linear_18_21332)"/>
</g>
<g filter="url(#filter1_iiii_18_21332)">
<path fill-rule="evenodd" clip-rule="evenodd" d="M16 30.3828C23.7147 30.3828 29.9688 24.1288 29.9688 16.4141C29.9688 8.69934 23.7147 2.44531 16 2.44531C8.28528 2.44531 2.03125 8.69934 2.03125 16.4141C2.03125 24.1288 8.28528 30.3828 16 30.3828ZM16 27.2891C22.0061 27.2891 26.875 22.4202 26.875 16.4141C26.875 10.408 22.0061 5.53906 16 5.53906C9.9939 5.53906 5.125 10.408 5.125 16.4141C5.125 22.4202 9.9939 27.2891 16 27.2891Z" fill="url(#paint1_linear_18_21332)"/>
</g>
<g filter="url(#filter2_f_18_21332)">
<path fill-rule="evenodd" clip-rule="evenodd" d="M9.913 11.3154C9.74003 11.4256 9.63523 11.6165 9.63523 11.8216V12.1016C9.63523 12.3566 9.82609 12.567 10.0727 12.5978V20.1954H9.96507C9.64652 20.1954 9.36814 20.4105 9.2877 20.7187L8.97825 21.9051C8.89561 22.2219 9.13462 22.5313 9.46201 22.5313H21.9129C22.2345 22.5313 22.4724 22.2322 22.4001 21.9189L22.1276 20.738C22.0543 20.4204 21.7715 20.1954 21.4455 20.1954H21.3384V12.5956C21.5774 12.5581 21.7602 12.3512 21.7602 12.1016V11.8216C21.7602 11.6165 21.6554 11.4256 21.4825 11.3154L16.1005 7.8893C15.8548 7.73286 15.5407 7.73286 15.295 7.8893L9.913 11.3154ZM19.729 20.1954V12.6016H18.1196V20.1954H19.729ZM16.5102 20.1954V12.6016H14.9009V20.1954H16.5102ZM13.2915 20.1954V12.6016H11.6821V20.1954H13.2915Z" fill="#DC7B3C"/>
</g>
<g filter="url(#filter3_ii_18_21332)">
<path d="M9.94775 11.5403C9.94775 11.3352 10.0525 11.1443 10.2255 11.0342L15.6075 7.60804C15.8532 7.45162 16.1673 7.45162 16.413 7.60804L21.795 11.0342C21.968 11.1443 22.0728 11.3352 22.0728 11.5403V11.8204C22.0728 12.0965 21.8489 12.3204 21.5728 12.3204H10.4478C10.1716 12.3204 9.94775 12.0965 9.94775 11.8204V11.5403Z" fill="#FFC546"/>
</g>
<path d="M9.94775 11.5403C9.94775 11.3352 10.0525 11.1443 10.2255 11.0342L15.6075 7.60804C15.8532 7.45162 16.1673 7.45162 16.413 7.60804L21.795 11.0342C21.968 11.1443 22.0728 11.3352 22.0728 11.5403V11.8204C22.0728 12.0965 21.8489 12.3204 21.5728 12.3204H10.4478C10.1716 12.3204 9.94775 12.0965 9.94775 11.8204V11.5403Z" fill="url(#paint2_linear_18_21332)"/>
<path d="M10.3853 12.1172C10.3853 11.9791 10.4972 11.8672 10.6353 11.8672H11.7446C11.8827 11.8672 11.9946 11.9791 11.9946 12.1172V20.1328H10.3853V12.1172Z" fill="url(#paint3_linear_18_21332)"/>
<path d="M10.3853 12.1172C10.3853 11.9791 10.4972 11.8672 10.6353 11.8672H11.7446C11.8827 11.8672 11.9946 11.9791 11.9946 12.1172V20.1328H10.3853V12.1172Z" fill="url(#paint4_linear_18_21332)"/>
<rect x="13.604" y="11.8672" width="1.60938" height="8.26562" fill="url(#paint5_linear_18_21332)"/>
<rect x="13.604" y="11.8672" width="1.60938" height="8.26562" fill="url(#paint6_linear_18_21332)"/>
<rect x="16.8228" y="11.8672" width="1.60938" height="8.26562" fill="url(#paint7_linear_18_21332)"/>
<rect x="16.8228" y="11.8672" width="1.60938" height="8.26562" fill="url(#paint8_linear_18_21332)"/>
<rect x="20.0415" y="11.8672" width="1.60938" height="8.26562" fill="url(#paint9_linear_18_21332)"/>
<rect x="20.0415" y="11.8672" width="1.60938" height="8.26562" fill="url(#paint10_linear_18_21332)"/>
<g filter="url(#filter4_ii_18_21332)">
<path d="M9.60025 20.4374C9.68066 20.1291 9.95903 19.9141 10.2776 19.9141H21.758C22.084 19.9141 22.3668 20.139 22.4401 20.4567L22.7126 21.6376C22.7849 21.9509 22.547 22.25 22.2254 22.25H9.77456C9.44716 22.25 9.20811 21.9406 9.29075 21.6238L9.60025 20.4374Z" fill="#FFC248"/>
</g>
<defs>
<filter id="filter0_i_18_21332" x="4.875" y="5.53906" width="22" height="22" filterUnits="userSpaceOnUse" color-interpolation-filters="sRGB">
<feFlood flood-opacity="0" result="BackgroundImageFix"/>
<feBlend mode="normal" in="SourceGraphic" in2="BackgroundImageFix" result="shape"/>
<feColorMatrix in="SourceAlpha" type="matrix" values="0 0 0 0 0 0 0 0 0 0 0 0 0 0 0 0 0 0 127 0" result="hardAlpha"/>
<feOffset dx="-0.25" dy="0.25"/>
<feGaussianBlur stdDeviation="0.5"/>
<feComposite in2="hardAlpha" operator="arithmetic" k2="-1" k3="1"/>
<feColorMatrix type="matrix" values="0 0 0 0 0.831373 0 0 0 0 0.45098 0 0 0 0 0.196078 0 0 0 1 0"/>
<feBlend mode="normal" in2="shape" result="effect1_innerShadow_18_21332"/>
</filter>
<filter id="filter1_iiii_18_21332" x="1.73125" y="2.14531" width="28.5375" height="28.5375" filterUnits="userSpaceOnUse" color-interpolation-filters="sRGB">
<feFlood flood-opacity="0" result="BackgroundImageFix"/>
<feBlend mode="normal" in="SourceGraphic" in2="BackgroundImageFix" result="shape"/>
<feColorMatrix in="SourceAlpha" type="matrix" values="0 0 0 0 0 0 0 0 0 0 0 0 0 0 0 0 0 0 127 0" result="hardAlpha"/>
<feOffset dx="0.3" dy="0.3"/>
<feGaussianBlur stdDeviation="0.3"/>
<feComposite in2="hardAlpha" operator="arithmetic" k2="-1" k3="1"/>
<feColorMatrix type="matrix" values="0 0 0 0 0.886275 0 0 0 0 0.662745 0 0 0 0 0.235294 0 0 0 1 0"/>
<feBlend mode="normal" in2="shape" result="effect1_innerShadow_18_21332"/>
<feColorMatrix in="SourceAlpha" type="matrix" values="0 0 0 0 0 0 0 0 0 0 0 0 0 0 0 0 0 0 127 0" result="hardAlpha"/>
<feOffset dx="0.3" dy="-0.3"/>
<feGaussianBlur stdDeviation="0.3"/>
<feComposite in2="hardAlpha" operator="arithmetic" k2="-1" k3="1"/>
<feColorMatrix type="matrix" values="0 0 0 0 0.956863 0 0 0 0 0.607843 0 0 0 0 0.294118 0 0 0 1 0"/>
<feBlend mode="normal" in2="effect1_innerShadow_18_21332" result="effect2_innerShadow_18_21332"/>
<feColorMatrix in="SourceAlpha" type="matrix" values="0 0 0 0 0 0 0 0 0 0 0 0 0 0 0 0 0 0 127 0" result="hardAlpha"/>
<feOffset dy="-0.3"/>
<feGaussianBlur stdDeviation="0.3"/>
<feComposite in2="hardAlpha" operator="arithmetic" k2="-1" k3="1"/>
<feColorMatrix type="matrix" values="0 0 0 0 0.956863 0 0 0 0 0.607843 0 0 0 0 0.294118 0 0 0 1 0"/>
<feBlend mode="normal" in2="effect2_innerShadow_18_21332" result="effect3_innerShadow_18_21332"/>
<feColorMatrix in="SourceAlpha" type="matrix" values="0 0 0 0 0 0 0 0 0 0 0 0 0 0 0 0 0 0 127 0" result="hardAlpha"/>
<feOffset dx="-0.3" dy="0.3"/>
<feGaussianBlur stdDeviation="0.3"/>
<feComposite in2="hardAlpha" operator="arithmetic" k2="-1" k3="1"/>
<feColorMatrix type="matrix" values="0 0 0 0 1 0 0 0 0 0.882353 0 0 0 0 0.337255 0 0 0 1 0"/>
<feBlend mode="normal" in2="effect3_innerShadow_18_21332" result="effect4_innerShadow_18_21332"/>
</filter>
<filter id="filter2_f_18_21332" x="8.36179" y="7.17197" width="14.6514" height="15.9593" filterUnits="userSpaceOnUse" color-interpolation-filters="sRGB">
<feFlood flood-opacity="0" result="BackgroundImageFix"/>
<feBlend mode="normal" in="SourceGraphic" in2="BackgroundImageFix" result="shape"/>
<feGaussianBlur stdDeviation="0.3" result="effect1_foregroundBlur_18_21332"/>
</filter>
<filter id="filter3_ii_18_21332" x="9.94775" y="7.24072" width="12.275" height="5.32959" filterUnits="userSpaceOnUse" color-interpolation-filters="sRGB">
<feFlood flood-opacity="0" result="BackgroundImageFix"/>
<feBlend mode="normal" in="SourceGraphic" in2="BackgroundImageFix" result="shape"/>
<feColorMatrix in="SourceAlpha" type="matrix" values="0 0 0 0 0 0 0 0 0 0 0 0 0 0 0 0 0 0 127 0" result="hardAlpha"/>
<feOffset dy="-0.25"/>
<feGaussianBlur stdDeviation="0.25"/>
<feComposite in2="hardAlpha" operator="arithmetic" k2="-1" k3="1"/>
<feColorMatrix type="matrix" values="0 0 0 0 0.980392 0 0 0 0 0.647059 0 0 0 0 0.172549 0 0 0 1 0"/>
<feBlend mode="normal" in2="shape" result="effect1_innerShadow_18_21332"/>
<feColorMatrix in="SourceAlpha" type="matrix" values="0 0 0 0 0 0 0 0 0 0 0 0 0 0 0 0 0 0 127 0" result="hardAlpha"/>
<feOffset dx="0.15" dy="0.25"/>
<feGaussianBlur stdDeviation="0.25"/>
<feComposite in2="hardAlpha" operator="arithmetic" k2="-1" k3="1"/>
<feColorMatrix type="matrix" values="0 0 0 0 0.980392 0 0 0 0 0.647059 0 0 0 0 0.172549 0 0 0 1 0"/>
<feBlend mode="normal" in2="effect1_innerShadow_18_21332" result="effect2_innerShadow_18_21332"/>
</filter>
<filter id="filter4_ii_18_21332" x="9.02429" y="19.6641" width="13.9514" height="2.83594" filterUnits="userSpaceOnUse" color-interpolation-filters="sRGB">
<feFlood flood-opacity="0" result="BackgroundImageFix"/>
<feBlend mode="normal" in="SourceGraphic" in2="BackgroundImageFix" result="shape"/>
<feColorMatrix in="SourceAlpha" type="matrix" values="0 0 0 0 0 0 0 0 0 0 0 0 0 0 0 0 0 0 127 0" result="hardAlpha"/>
<feOffset dx="0.25" dy="-0.25"/>
<feGaussianBlur stdDeviation="0.2"/>
<feComposite in2="hardAlpha" operator="arithmetic" k2="-1" k3="1"/>
<feColorMatrix type="matrix" values="0 0 0 0 0.992157 0 0 0 0 0.658824 0 0 0 0 0.0705882 0 0 0 1 0"/>
<feBlend mode="normal" in2="shape" result="effect1_innerShadow_18_21332"/>
<feColorMatrix in="SourceAlpha" type="matrix" values="0 0 0 0 0 0 0 0 0 0 0 0 0 0 0 0 0 0 127 0" result="hardAlpha"/>
<feOffset dx="-0.25" dy="0.25"/>
<feGaussianBlur stdDeviation="0.2"/>
<feComposite in2="hardAlpha" operator="arithmetic" k2="-1" k3="1"/>
<feColorMatrix type="matrix" values="0 0 0 0 1 0 0 0 0 0.8 0 0 0 0 0.290196 0 0 0 1 0"/>
<feBlend mode="normal" in2="effect1_innerShadow_18_21332" result="effect2_innerShadow_18_21332"/>
</filter>
<linearGradient id="paint0_linear_18_21332" x1="11.5625" y1="21.8516" x2="23.3125" y2="7.03906" gradientUnits="userSpaceOnUse">
<stop stop-color="#F19D48"/>
<stop offset="1" stop-color="#E89A44"/>
</linearGradient>
<linearGradient id="paint1_linear_18_21332" x1="16" y1="2.44531" x2="16" y2="30.3828" gradientUnits="userSpaceOnUse">
<stop stop-color="#FFC444"/>
<stop offset="1" stop-color="#FFC24B"/>
</linearGradient>
<linearGradient id="paint2_linear_18_21332" x1="19.3125" y1="9.28914" x2="18.9062" y2="9.90556" gradientUnits="userSpaceOnUse">
<stop offset="0.458872" stop-color="#FFCA3F"/>
<stop offset="1" stop-color="#FFCA3F" stop-opacity="0"/>
</linearGradient>
<linearGradient id="paint3_linear_18_21332" x1="10.5313" y1="15.0585" x2="11.3125" y2="15.0585" gradientUnits="userSpaceOnUse">
<stop offset="0.166667" stop-color="#FFB33B"/>
<stop offset="1" stop-color="#FFC047"/>
</linearGradient>
<linearGradient id="paint4_linear_18_21332" x1="11.9946" y1="16.6861" x2="11.6094" y2="16.6861" gradientUnits="userSpaceOnUse">
<stop offset="0.0671736" stop-color="#FFC34C"/>
<stop offset="1" stop-color="#FFC34C" stop-opacity="0"/>
</linearGradient>
<linearGradient id="paint5_linear_18_21332" x1="13.75" y1="15.0585" x2="14.5313" y2="15.0585" gradientUnits="userSpaceOnUse">
<stop offset="0.166667" stop-color="#FFB33B"/>
<stop offset="1" stop-color="#FFC047"/>
</linearGradient>
<linearGradient id="paint6_linear_18_21332" x1="15.2134" y1="16.6861" x2="14.8281" y2="16.6861" gradientUnits="userSpaceOnUse">
<stop offset="0.0671736" stop-color="#FFC34C"/>
<stop offset="1" stop-color="#FFC34C" stop-opacity="0"/>
</linearGradient>
<linearGradient id="paint7_linear_18_21332" x1="16.9688" y1="15.0585" x2="17.75" y2="15.0585" gradientUnits="userSpaceOnUse">
<stop offset="0.166667" stop-color="#FFB33B"/>
<stop offset="1" stop-color="#FFC047"/>
</linearGradient>
<linearGradient id="paint8_linear_18_21332" x1="18.4321" y1="16.6861" x2="18.0469" y2="16.6861" gradientUnits="userSpaceOnUse">
<stop offset="0.0671736" stop-color="#FFC34C"/>
<stop offset="1" stop-color="#FFC34C" stop-opacity="0"/>
</linearGradient>
<linearGradient id="paint9_linear_18_21332" x1="20.1875" y1="15.0585" x2="20.9688" y2="15.0585" gradientUnits="userSpaceOnUse">
<stop offset="0.166667" stop-color="#FFB33B"/>
<stop offset="1" stop-color="#FFC047"/>
</linearGradient>
<linearGradient id="paint10_linear_18_21332" x1="21.6509" y1="16.6861" x2="21.2656" y2="16.6861" gradientUnits="userSpaceOnUse">
<stop offset="0.0671736" stop-color="#FFC34C"/>
<stop offset="1" stop-color="#FFC34C" stop-opacity="0"/>
</linearGradient>
</defs>
</svg>

<svg width="32" height="32" fill="none" xmlns="http://www.w3.org/2000/svg"><g filter="url(#a)"><circle cx="16" cy="16.414" r="10.875" fill="url(#b)"/></g><g filter="url(#c)"><path fill-rule="evenodd" clip-rule="evenodd" d="M16 30.383c7.715 0 13.969-6.254 13.969-13.969S23.715 2.445 16 2.445 2.031 8.7 2.031 16.415c0 7.714 6.254 13.968 13.969 13.968Zm0-3.094c6.006 0 10.875-4.869 10.875-10.875S22.006 5.54 16 5.54 5.125 10.408 5.125 16.414 9.994 27.29 16 27.29Z" fill="url(#d)"/></g><g filter="url(#e)"><path fill-rule="evenodd" clip-rule="evenodd" d="M9.913 11.315a.6.6 0 0 0-.278.507v.28a.5.5 0 0 0 .438.496v7.597h-.108a.7.7 0 0 0-.677.524l-.31 1.186a.5.5 0 0 0 .484.626h12.45a.5.5 0 0 0 .488-.612l-.272-1.181a.7.7 0 0 0-.683-.543h-.107v-7.6a.5.5 0 0 0 .422-.493v-.28a.6.6 0 0 0-.277-.507L16.1 7.89a.75.75 0 0 0-.805 0l-5.382 3.426Zm9.816 8.88v-7.593h-1.61v7.593h1.61Zm-3.219 0v-7.593H14.9v7.593h1.61Zm-3.219 0v-7.593h-1.609v7.593h1.61Z" fill="#DC7B3C"/></g><g filter="url(#f)"><path d="M9.948 11.54a.6.6 0 0 1 .277-.506l5.383-3.426a.75.75 0 0 1 .805 0l5.382 3.426a.6.6 0 0 1 .278.506v.28a.5.5 0 0 1-.5.5H10.448a.5.5 0 0 1-.5-.5v-.28Z" fill="#FFC546"/></g><path d="M9.948 11.54a.6.6 0 0 1 .277-.506l5.383-3.426a.75.75 0 0 1 .805 0l5.382 3.426a.6.6 0 0 1 .278.506v.28a.5.5 0 0 1-.5.5H10.448a.5.5 0 0 1-.5-.5v-.28Z" fill="url(#g)"/><path d="M10.385 12.117a.25.25 0 0 1 .25-.25h1.11a.25.25 0 0 1 .25.25v8.016h-1.61v-8.016Z" fill="url(#h)"/><path d="M10.385 12.117a.25.25 0 0 1 .25-.25h1.11a.25.25 0 0 1 .25.25v8.016h-1.61v-8.016Z" fill="url(#i)"/><path fill="url(#j)" d="M13.604 11.867h1.609v8.266h-1.609z"/><path fill="url(#k)" d="M13.604 11.867h1.609v8.266h-1.609z"/><path fill="url(#l)" d="M16.823 11.867h1.609v8.266h-1.609z"/><path fill="url(#m)" d="M16.823 11.867h1.609v8.266h-1.609z"/><path fill="url(#n)" d="M20.041 11.867h1.609v8.266h-1.609z"/><path fill="url(#o)" d="M20.041 11.867h1.609v8.266h-1.609z"/><g filter="url(#p)"><path d="M9.6 20.437a.7.7 0 0 1 .678-.523h11.48a.7.7 0 0 1 .682.543l.273 1.18a.5.5 0 0 1-.488.613H9.775a.5.5 0 0 1-.484-.626l.31-1.187Z" fill="#FFC248"/></g><defs><linearGradient id="b" x1="11.563" y1="21.852" x2="23.313" y2="7.039" gradientUnits="userSpaceOnUse"><stop stop-color="#F19D48"/><stop offset="1" stop-color="#E89A44"/></linearGradient><linearGradient id="d" x1="16" y1="2.445" x2="16" y2="30.383" gradientUnits="userSpaceOnUse"><stop stop-color="#FFC444"/><stop offset="1" stop-color="#FFC24B"/></linearGradient><linearGradient id="g" x1="19.313" y1="9.289" x2="18.906" y2="9.906" gradientUnits="userSpaceOnUse"><stop offset=".459" stop-color="#FFCA3F"/><stop offset="1" stop-color="#FFCA3F" stop-opacity="0"/></linearGradient><linearGradient id="h" x1="10.531" y1="15.059" x2="11.313" y2="15.059" gradientUnits="userSpaceOnUse"><stop offset=".167" stop-color="#FFB33B"/><stop offset="1" stop-color="#FFC047"/></linearGradient><linearGradient id="i" x1="11.995" y1="16.686" x2="11.609" y2="16.686" gradientUnits="userSpaceOnUse"><stop offset=".067" stop-color="#FFC34C"/><stop offset="1" stop-color="#FFC34C" stop-opacity="0"/></linearGradient><linearGradient id="j" x1="13.75" y1="15.059" x2="14.531" y2="15.059" gradientUnits="userSpaceOnUse"><stop offset=".167" stop-color="#FFB33B"/><stop offset="1" stop-color="#FFC047"/></linearGradient><linearGradient id="k" x1="15.213" y1="16.686" x2="14.828" y2="16.686" gradientUnits="userSpaceOnUse"><stop offset=".067" stop-color="#FFC34C"/><stop offset="1" stop-color="#FFC34C" stop-opacity="0"/></linearGradient><linearGradient id="l" x1="16.969" y1="15.059" x2="17.75" y2="15.059" gradientUnits="userSpaceOnUse"><stop offset=".167" stop-color="#FFB33B"/><stop offset="1" stop-color="#FFC047"/></linearGradient><linearGradient id="m" x1="18.432" y1="16.686" x2="18.047" y2="16.686" gradientUnits="userSpaceOnUse"><stop offset=".067" stop-color="#FFC34C"/><stop offset="1" stop-color="#FFC34C" stop-opacity="0"/></linearGradient><linearGradient id="n" x1="20.188" y1="15.059" x2="20.969" y2="15.059" gradientUnits="userSpaceOnUse"><stop offset=".167" stop-color="#FFB33B"/><stop offset="1" stop-color="#FFC047"/></linearGradient><linearGradient id="o" x1="21.651" y1="16.686" x2="21.266" y2="16.686" gradientUnits="userSpaceOnUse"><stop offset=".067" stop-color="#FFC34C"/><stop offset="1" stop-color="#FFC34C" stop-opacity="0"/></linearGradient><filter id="a" x="4.875" y="5.539" width="22" height="22" filterUnits="userSpaceOnUse" color-interpolation-filters="sRGB"><feFlood flood-opacity="0" result="BackgroundImageFix"/><feBlend in="SourceGraphic" in2="BackgroundImageFix" result="shape"/><feColorMatrix in="SourceAlpha" values="0 0 0 0 0 0 0 0 0 0 0 0 0 0 0 0 0 0 127 0" result="hardAlpha"/><feOffset dx="-.25" dy=".25"/><feGaussianBlur stdDeviation=".5"/><feComposite in2="hardAlpha" operator="arithmetic" k2="-1" k3="1"/><feColorMatrix values="0 0 0 0 0.831373 0 0 0 0 0.45098 0 0 0 0 0.196078 0 0 0 1 0"/><feBlend in2="shape" result="effect1_innerShadow_18_21332"/></filter><filter id="c" x="1.731" y="2.145" width="28.538" height="28.538" filterUnits="userSpaceOnUse" color-interpolation-filters="sRGB"><feFlood flood-opacity="0" result="BackgroundImageFix"/><feBlend in="SourceGraphic" in2="BackgroundImageFix" result="shape"/><feColorMatrix in="SourceAlpha" values="0 0 0 0 0 0 0 0 0 0 0 0 0 0 0 0 0 0 127 0" result="hardAlpha"/><feOffset dx=".3" dy=".3"/><feGaussianBlur stdDeviation=".3"/><feComposite in2="hardAlpha" operator="arithmetic" k2="-1" k3="1"/><feColorMatrix values="0 0 0 0 0.886275 0 0 0 0 0.662745 0 0 0 0 0.235294 0 0 0 1 0"/><feBlend in2="shape" result="effect1_innerShadow_18_21332"/><feColorMatrix in="SourceAlpha" values="0 0 0 0 0 0 0 0 0 0 0 0 0 0 0 0 0 0 127 0" result="hardAlpha"/><feOffset dx=".3" dy="-.3"/><feGaussianBlur stdDeviation=".3"/><feComposite in2="hardAlpha" operator="arithmetic" k2="-1" k3="1"/><feColorMatrix values="0 0 0 0 0.956863 0 0 0 0 0.607843 0 0 0 0 0.294118 0 0 0 1 0"/><feBlend in2="effect1_innerShadow_18_21332" result="effect2_innerShadow_18_21332"/><feColorMatrix in="SourceAlpha" values="0 0 0 0 0 0 0 0 0 0 0 0 0 0 0 0 0 0 127 0" result="hardAlpha"/><feOffset dy="-.3"/><feGaussianBlur stdDeviation=".3"/><feComposite in2="hardAlpha" operator="arithmetic" k2="-1" k3="1"/><feColorMatrix values="0 0 0 0 0.956863 0 0 0 0 0.607843 0 0 0 0 0.294118 0 0 0 1 0"/><feBlend in2="effect2_innerShadow_18_21332" result="effect3_innerShadow_18_21332"/><feColorMatrix in="SourceAlpha" values="0 0 0 0 0 0 0 0 0 0 0 0 0 0 0 0 0 0 127 0" result="hardAlpha"/><feOffset dx="-.3" dy=".3"/><feGaussianBlur stdDeviation=".3"/><feComposite in2="hardAlpha" operator="arithmetic" k2="-1" k3="1"/><feColorMatrix values="0 0 0 0 1 0 0 0 0 0.882353 0 0 0 0 0.337255 0 0 0 1 0"/><feBlend in2="effect3_innerShadow_18_21332" result="effect4_innerShadow_18_21332"/></filter><filter id="e" x="8.362" y="7.172" width="14.651" height="15.959" filterUnits="userSpaceOnUse" color-interpolation-filters="sRGB"><feFlood flood-opacity="0" result="BackgroundImageFix"/><feBlend in="SourceGraphic" in2="BackgroundImageFix" result="shape"/><feGaussianBlur stdDeviation=".3" result="effect1_foregroundBlur_18_21332"/></filter><filter id="f" x="9.948" y="7.241" width="12.275" height="5.33" filterUnits="userSpaceOnUse" color-interpolation-filters="sRGB"><feFlood flood-opacity="0" result="BackgroundImageFix"/><feBlend in="SourceGraphic" in2="BackgroundImageFix" result="shape"/><feColorMatrix in="SourceAlpha" values="0 0 0 0 0 0 0 0 0 0 0 0 0 0 0 0 0 0 127 0" result="hardAlpha"/><feOffset dy="-.25"/><feGaussianBlur stdDeviation=".25"/><feComposite in2="hardAlpha" operator="arithmetic" k2="-1" k3="1"/><feColorMatrix values="0 0 0 0 0.980392 0 0 0 0 0.647059 0 0 0 0 0.172549 0 0 0 1 0"/><feBlend in2="shape" result="effect1_innerShadow_18_21332"/><feColorMatrix in="SourceAlpha" values="0 0 0 0 0 0 0 0 0 0 0 0 0 0 0 0 0 0 127 0" result="hardAlpha"/><feOffset dx=".15" dy=".25"/><feGaussianBlur stdDeviation=".25"/><feComposite in2="hardAlpha" operator="arithmetic" k2="-1" k3="1"/><feColorMatrix values="0 0 0 0 0.980392 0 0 0 0 0.647059 0 0 0 0 0.172549 0 0 0 1 0"/><feBlend in2="effect1_innerShadow_18_21332" result="effect2_innerShadow_18_21332"/></filter><filter id="p" x="9.024" y="19.664" width="13.951" height="2.836" filterUnits="userSpaceOnUse" color-interpolation-filters="sRGB"><feFlood flood-opacity="0" result="BackgroundImageFix"/><feBlend in="SourceGraphic" in2="BackgroundImageFix" result="shape"/><feColorMatrix in="SourceAlpha" values="0 0 0 0 0 0 0 0 0 0 0 0 0 0 0 0 0 0 127 0" result="hardAlpha"/><feOffset dx=".25" dy="-.25"/><feGaussianBlur stdDeviation=".2"/><feComposite in2="hardAlpha" operator="arithmetic" k2="-1" k3="1"/><feColorMatrix values="0 0 0 0 0.992157 0 0 0 0 0.658824 0 0 0 0 0.0705882 0 0 0 1 0"/><feBlend in2="shape" result="effect1_innerShadow_18_21332"/><feColorMatrix in="SourceAlpha" values="0 0 0 0 0 0 0 0 0 0 0 0 0 0 0 0 0 0 127 0" result="hardAlpha"/><feOffset dx="-.25" dy=".25"/><feGaussianBlur stdDeviation=".2"/><feComposite in2="hardAlpha" operator="arithmetic" k2="-1" k3="1"/><feColorMatrix values="0 0 0 0 1 0 0 0 0 0.8 0 0 0 0 0.290196 0 0 0 1 0"/><feBlend in2="effect1_innerShadow_18_21332" result="effect2_innerShadow_18_21332"/></filter></defs></svg>
